-----BEGIN PGP PUBLIC KEY BLOCK-----

mQINBGm9bCQBEACk0fQqkd/YSxCGSAoqQ0KIIrpCLjqqPLYeuGSjaPfLpmQM+/w5
GrrE0dTsS9TdBR0lBSHjm8cStGni+htoBhYtTkU31j/jJJW+s6P3KinYx2K0p/RT
pqApa0yopUFf7NnZzIvGWrAdXiOYoxsT+zxsd+d3R8XN0UH3jbZFTONPkIkP25Kc
ptiXeQ25sulCKSGDkBdkpVWop4pU4W91PIMIZxBKZCyixMUpVz8smy6ROVvoXbQ2
Y5TOzql6XhaZKdmEfYfXD28FljYnb/OemutvIEShxVhwIpJVfiwXoxdtqbR5DJh7
VhTHPRbFBrdtPln7NQ8bfA0GXm1FCK0XwrZP342rfgL+LkLU2Ut+1wq6FPT7nYeE
ravQKVvsUVD8hHReG848gqVDmhfZSd5tuG7IzYjlPKgj6Da0hE4pcQErLvSqY/sr
sfYrhHZ43X2oJm5v/x03UEJohQh7HzkRjvfLkVC++qb2zLtlYN4hLWpuW71VbJBO
GWoqNWa8Er8TTj1lVrwS/0JojhkuiFa6rWeYbdNXc+oPHO6f5HtyQ3mgTbcE2U6I
c5MCPcZvqI47KkPxm+Y5E3LS0cga3YS0dvL2k9mCot8KsBf19JxI01jLx7wcgILq
5fn0VwPTyNLkxWg+KGhR1550zLS/JD/gr08gLtO4v25kD7V9PXX3Nv4sdwARAQAB
tDtOaWNvbGFzIFZpbGxhY3JlcyAoaG9sYW11bmRvKSA8dmlsbGFjcmVzbmljb2xh
czdAZ21haWwuY29tPokCUQQTAQoAOxYhBBU+rIqfVi58tFQ5eS33wOEgLXxCBQJp
vWwkAhsDBQsJCAcCAiICBhUKCQgLAgQWAgMBAh4HAheAAAoJEC33wOEgLXxCxhcQ
AIsxf1nwCC0Qmfi/RINW6L6TCG+dlO4J2036oR+mF5M1dwBAa6nbb6aQht4FwoZN
03tceuluO+kQtxunifLKbGEUdkbM8HT7Dz1eJV+QO5FIQCJPwcIIhxPIM3QntRTX
R6ikRNjwaGTmuRU56jkYrpVAHyQlN4YOnl5P5Lu9ZJ00UViDWnKirjtOWr9HmzeP
itFdHKydZ4opohzi+2HAQafq+i4VDQyz0qTM6rOjhLcsaxD+bDHTSoytS+NYECW8
fKFfLM0ioGqyR8UTcM54T1ZnxMFY8d92MWnrmhxpMwL8xkLHTDl1IF7OTzNclf5c
p8Elbgk6Yr1g6csvX5bC0f3bTmZQL0Qp9+jX/Lupi0O6WWKpv5wvErGyC70uCagV
racOs7ZHiz2DCTv4yqVJQc4zdU96cJ/Rd2dmsQZLJVAh3We0WDzwXfkTXvWvYuSM
mMbWtc173VdeyqzzFIjK11vnaJyYdoJLTqzp6gcxz3Q12M8I3DzD9mPO1k693l9p
wCNKSF+5O7vgV27pqrymZ4L5u0egEnwU1144Sw2Xxqj+X7rGF7uQ8KuiwcHI9DG+
YVIFYxVUiDFaapLPBKd/zsy0ljN2d+AbHTLvpvUyuWru8UxxJNpz4QcqkD+4hlKn
jp4/r1E0lg8WTNlZ7AU4WwGxR89TvFyCPx54dzc2+GHWuQINBGm9bCQBEACrUgwt
aFVG4bnSOi+Chk1VPCm06ToHib9rbGUfafeQp4v8TxPA5QrMYH95w2FJsKij/Onn
1MYqEn/nj4665wGvqGYG0rqP10PmoEoK5ygwEO3cyVByH6NMk2JniiU+1QH0qYOa
eX0mxR+oWR0Kc6+8B6itF/nBaKb/ewi2o/g3wMoJfCWEqT4vTEco6LCPkj/e+BzV
EUU6uGCIOpqO4PQ4Jl7B1MlTBOQxGgDFIwR1zcBkVNm384W1a7axpZ0tJOSQ+wYj
L5z2Yh805JT4wcVZQRSU35jPknO9XCjU4qaT0ZfugqVB7KMEOgXd+QSSWF1B6Jpo
z9jpkBtKs5n+J2fJxWs2Y48zG23Z+WMWeVfWbJxuoz0ckyIN0Tlvq7qDZ0OiNDxz
H+DAb9y2ikAa+J2fIxZ/NZ+qzVnkp4cDQztPobnq+L5+MSYVVJU6Xyj8zf7ePPEM
mPwSktj9rkrcfNxUECJjt+dqWz+RCUrFCBRzwg/5q6nWDBqkzpGKvcxlvPbNw0Lb
extX+dxGvJLJ+xN/wyhqc2kCXr9oyAXqouWDdlB4/vi72Ototlo+lAouKvghSyed
kpPKaY/PfP4jNFCmIbHUxfByKVa2Azt/n/vE8Ef8dSG3edXrLN7qrU0gNa8+m9Ke
Pf1DXjvYjUBUPUbwPfIY2gu6DndGOw5fSYaOvQARAQABiQI2BBgBCgAgFiEEFT6s
ip9WLny0VDl5LffA4SAtfEIFAmm9bCQCGwwACgkQLffA4SAtfEIFwg/+K1bKhhxG
sqld7PwwJoBfaPgtJ6CQ4m4+K29nN/dPQqyCZKlvL2G6R3IORymyz2lilKBBQojn
FjbhYJePxCEZ1NIXxX73Jd+Q/iOlj2FbPcdvGMVty60Zfx1KA3aWDM8DaK+C+mjN
j9W92f9vGYgArx3KZaFP/yTb3S/ME4Y1oBVc6Eg66Et+PBmfM6lUT2jXce+tJxsm
eoVeBN15r5VdhcM1kP5+SE0xxy8TxLSpUk/Xr3dyMLkOqOYIZFgNA7R5AMKCqh7f
/dCQvORBiwcQlBGs026Qx0b0LpTfPcUtY9EDZJ+lWqJoEFUQYGFeSz+ocGd6L9JH
sbogfGur9I85cEiJgYTEMI1N551OQqZQ4Ehh8Cd6fUipZrELExQIf9EKaPzj/PwK
cseIm/GLS52OnvDfHVRZKcMno//1nKEyAHtzQVp33jzROURFQ9bRKBgN2CHaodS0
2YobHQoyLUqFxB8ukA9Cvkfw7TsgcCp5UVcjkVhoYz0fd8Ytj+ZM3Go2zRguuvUq
6IBaDutEtzBqLnk0VwoDSn/YWwTO1clqyEVJzsSSsTVP/oXu22PGWH3onWC3B5vr
fP72IT93zjQBb6Tc84CmaOKV7xWkD3rNwph+HdzV0vEPAtpFrod7AsD/bbTYLbhI
JSpCm6CyELhl0DeyuRDp89LmBUj7o4H5bLY=
=3dBQ
-----END PGP PUBLIC KEY BLOCK-----
